X:1
T:Es Ist Gewisslich, 87.87.88.7
T:Es Ist Gewisslich, 87.87.88.7
T:Geistliche Lieder (Wittenberg, German
T:Public Domain Courtesy of the Cyber Hymnal™
C:Geistliche Lieder (Wittenberg, German
Z:Public Domain
Z:Courtesy of the Cyber Hymnal™
%%score ( 1 2 ) ( 3 4 )
L:1/8
Q:1/4=115
M:4/4
K:G
V:1 treble 
V:2 treble 
V:3 bass 
V:4 bass 
V:1
 [B,G]2 [CG]2 [DB]2 | [DA]2 [B,G]2 [EA]2 [DA]2 | [DB]4 [EG]4 | [DB]2 [Gc]2 [Fd]2 [DB]2 | %4
 [DA]4 [B,G]4 | z2 [B,G]2 [CG]2 [DB]2 | [DA]2 [B,G]2 [EA]2 [DA]2 | [DB]4 [EG]4 | %8
 [DB]2 [Gc]2 [Fd]2 [DB]2 | [CA]4 [B,G]4 | z2 [DB]2 [DB]2 [DA]2 | [B,G]2 [DF]2 [DG]2 [^CE]2 | %12
 D6 D2 | [DG]2 [EG]2 [DG]2 [DF]2 | [B,G]2 [DA]2 [DB]4 | z4 [EG]4 | [DB]2 [Gc]2 [Fd]2 [DB]2 | %17
 [DA]4 [B,G]4- | [B,G]2 |] %19
V:2
 x6 | x8 | x8 | x8 | x8 | x8 | x8 | x8 | x8 | x8 | x8 | x8 | D6 D2 | x8 | x8 | x8 | x8 | x8 | x2 |] %19
V:3
 [G,,D,]2 [C,E,]2 [G,,G,]2 | [D,F,]2 E,2 [C,G,]2 [D,F,]2 | [G,,G,]4 [C,G,]4 | %3
 G,2 [E,G,]2 [D,A,]2 G,2 | (G,2 F,2) [G,,G,]4 | z2 [G,,D,]2 [C,E,]2 [G,,G,]2 | %6
 [D,F,]2 E,2 [C,G,]2 [D,F,]2 | [G,,G,]4 [C,G,]4 | G,2 [E,G,]2 [D,A,]2 G,2 | (G,2 F,2) [G,,G,]4 | %10
 z2 [G,,G,]2 [B,,G,]2 [D,F,]2 | [E,G,]2 [B,,B,]2 [F,,B,]2 [A,,A,]2 | [D,F,]6 [D,F,]2 | %13
 [B,,G,]2 [C,G,]2 [G,,B,]2 [D,A,]2 | [E,G,]2 [D,F,]2 [G,,G,]4 | z4 [C,G,]4 | %16
 G,2 [E,G,]2 [D,A,]2 G,2 | (G,2 F,2) [G,,G,]4- | [G,,G,]2 |] %19
V:4
 x6 | x2 E,2 x4 | x8 | G,2 x2 G,2 x2 | D,4 x4 | x8 | x2 E,2 x4 | x8 | G,2 x2 G,2 x2 | E,4 x4 | x8 | %11
 x8 | x8 | x8 | x8 | x8 | G,2 x2 G,2 x2 | D,4 x4 | x2 |] %19

